assets/Cow/Flat/cow_flat.svg

<svg width="32" height="32" viewBox="0 0 32 32" fill="none" xmlns="http://www.w3.org/2000/svg">
<path d="M14 20H16L17.88 26.55C17.96 26.84 17.96 27.14 17.88 27.42L17.18 29.81C17.15 29.92 17.05 29.99 16.94 29.99H15.46C15.29 29.99 15.17 29.83 15.22 29.67L15.98 27.08C16 27.03 16 26.97 15.98 26.91L14 20Z" fill="#9B9B9B"/>
<path d="M20.29 30H21.77C21.88 30 21.98 29.93 22.01 29.82L23.96 23H21.96L20.05 29.68C20 29.84 20.12 30 20.29 30Z" fill="#9B9B9B"/>
<path d="M25.94 25H20.88C19.25 25 17.94 23.68 17.94 22.06V19H25.94V25Z" fill="#FF8687"/>
<path d="M25.31 10H24.8672L18.8731 12.2454L13.99 9.14553C13.4071 8.75331 12.9036 8.23707 12.52 7.62L12.3 7.25L10.72 10H6L6.90972 15.0142L8.10838 16.9621L9.01746 20.0381L8.12378 21.4749C8.45936 22.2456 9.15581 22.8061 9.99 22.96V29.75C9.99 29.89 10.1 30 10.24 30H11.74C11.88 30 11.99 29.89 11.99 29.75V27L12.86 26.56C13.55 26.21 13.99 25.51 13.99 24.74V23H20.38C20.99 23 21.54 22.79 21.99 22.45C21.99 23.95 23.01 25.26 24.47 25.62L26 26V29.75C26 29.89 26.11 30 26.25 30H27.75C27.89 30 28 29.89 28 29.75V20.29C28.38 20.04 28.71 19.74 29 19.4V24.01H30V14.7C30 12.1 27.9 10 25.31 10Z" fill="#D3D3D3"/>
<path d="M9.07001 4.47L9.59001 5.5H11.09L10.27 3.87C10.16 3.64 9.92001 3.5 9.67001 3.5C9.17001 3.5 8.85001 4.02 9.07001 4.47Z" fill="#F9C23C"/>
<path d="M10.0162 5H12.1406L6.03542 13H5.6807L2.6369 10.9392L4.1172 8.16016L7.91456 5.64838C8.53504 5.22943 9.2656 5 10.0162 5Z" fill="#E6E6E6"/>
<path d="M6.50343 9.6783L4.18164 12.9701C4.31174 12.99 4.44184 13 4.58195 13H9.03537C10.8368 13 12.2979 11.5436 12.2979 9.74813V7.28429H12.7082C13.9692 7.28429 15 6.25686 15 5H12.1678C11.6174 5 11.087 5.1596 10.6166 5.44888L6.67356 7.96259L6.50343 9.6783Z" fill="#636363"/>
<path d="M25.58 12.25L25.15 12.68C24.42 13.41 24 14.41 24 15.45V16.5C24 17.33 24.67 18 25.5 18C26.33 18 27 17.33 27 16.5V12.84C27 12.1 26.1 11.73 25.58 12.25Z" fill="#636363"/>
<path d="M30 23C28.9 23 28 23.9 28 25C28 26.11 28.9 27 30 27V23Z" fill="#636363"/>
<path d="M13.61 16.46L16.75 18.82C17.26 19.2 16.99 20 16.36 20H13.96C13.43 20 13 19.57 13 19.04V16.77C13 16.45 13.36 16.27 13.61 16.46Z" fill="#636363"/>
<path d="M6.90997 15L7.26997 17L7.94997 20.9C7.99997 21.19 8.09997 21.46 8.23997 21.7C8.42997 22.04 8.88997 22.1 9.16997 21.83C9.69997 21.3 9.98997 20.59 9.98997 19.84V19.42C9.98997 19.17 10.09 18.93 10.26 18.75L10.86 18.12C11.48 17.48 11.47 16.46 10.85 15.83C10.33 15.3 9.61997 15 8.87997 15H6.90997Z" fill="#636363"/>
<path d="M24 20C24 20.5523 23.5523 21 23 21C22.4477 21 22 20.5523 22 20C22 19.4477 22.4477 19 23 19C23.5523 19 24 19.4477 24 20Z" fill="#636363"/>
<path d="M23 13.32V15.3C23 16.79 21.79 18 20.28 18.01C19.83 18.01 19.39 17.9 19 17.69L15.74 15.95C14.66 15.37 13.99 14.24 13.99 13.02V9.16C14.8 9.71 15.77 10.01 16.78 10.01H24.87L23.73 11.34C23.26 11.89 23 12.59 23 13.32Z" fill="#636363"/>
<path d="M5.72286 13V10.0274C5.72286 8.86036 4.87221 8.14215 4.14165 8.14215L2.71055 9.09976C2.27021 9.39901 2 9.88779 2 10.4264C2 11.8529 3.16089 13 4.58199 13H5.72286Z" fill="#FF8687"/>
<path d="M7.5 10.47C7.22 10.47 7 10.24 7 9.96998V9.28998C7 9.00998 7.22 8.78998 7.5 8.78998C7.78 8.78998 8 9.00998 8 9.28998V9.96998C8 10.24 7.78 10.47 7.5 10.47Z" fill="#1C1C1C"/>
<path d="M3.5 11.56C3.22 11.56 3 11.34 3 11.06V10.5C3 10.22 3.22 10 3.5 10C3.78 10 4 10.22 4 10.5V11.05C4 11.33 3.78 11.56 3.5 11.56Z" fill="#BB1D80"/>
</svg>

<svg xmlns="http://www.w3.org/2000/svg" width="32" height="32" fill="none"><path fill="#9B9B9B" d="M14 20h2l1.88 6.55c.08.29.08.59 0 .87l-.7 2.39c-.03.11-.13.18-.24.18h-1.48c-.17 0-.29-.16-.24-.32l.76-2.59c.02-.05.02-.11 0-.17L14 20ZM20.29 30h1.48c.11 0 .21-.07.24-.18L23.96 23h-2l-1.91 6.68c-.05.16.07.32.24.32Z"/><path fill="#FF8687" d="M25.94 25h-5.06c-1.63 0-2.94-1.32-2.94-2.94V19h8v6Z"/><path fill="#D3D3D3" d="M25.31 10h-.443l-5.994 2.245-4.883-3.1a5.05 5.05 0 0 1-1.47-1.525l-.22-.37L10.72 10H6l.91 5.014 1.198 1.948.91 3.076-.894 1.437A2.54 2.54 0 0 0 9.99 22.96v6.79c0 .14.11.25.25.25h1.5c.14 0 .25-.11.25-.25V27l.87-.44c.69-.35 1.13-1.05 1.13-1.82V23h6.39c.61 0 1.16-.21 1.61-.55 0 1.5 1.02 2.81 2.48 3.17L26 26v3.75c0 .14.11.25.25.25h1.5c.14 0 .25-.11.25-.25v-9.46c.38-.25.71-.55 1-.89v4.61h1V14.7c0-2.6-2.1-4.7-4.69-4.7Z"/><path fill="#F9C23C" d="m9.07 4.47.52 1.03h1.5l-.82-1.63a.666.666 0 0 0-.6-.37c-.5 0-.82.52-.6.97Z"/><path fill="#E6E6E6" d="M10.016 5h2.125l-6.106 8h-.354l-3.044-2.06 1.48-2.78 3.798-2.512A3.758 3.758 0 0 1 10.016 5Z"/><path fill="#636363" d="M6.503 9.678 4.182 12.97c.13.02.26.03.4.03h4.453a3.258 3.258 0 0 0 3.263-3.252V7.284h.41A2.294 2.294 0 0 0 15 5h-2.832c-.55 0-1.081.16-1.551.449L6.674 7.963l-.17 1.715ZM25.58 12.25l-.43.43A3.93 3.93 0 0 0 24 15.45v1.05c0 .83.67 1.5 1.5 1.5s1.5-.67 1.5-1.5v-3.66c0-.74-.9-1.11-1.42-.59ZM30 23a2 2 0 1 0 0 4v-4ZM13.61 16.46l3.14 2.36c.51.38.24 1.18-.39 1.18h-2.4a.96.96 0 0 1-.96-.96v-2.27c0-.32.36-.5.61-.31ZM6.91 15l.36 2 .68 3.9c.05.29.15.56.29.8.19.34.65.4.93.13.53-.53.82-1.24.82-1.99v-.42c0-.25.1-.49.27-.67l.6-.63c.62-.64.61-1.66-.01-2.29-.52-.53-1.23-.83-1.97-.83H6.91ZM24 20a1 1 0 1 1-2 0 1 1 0 0 1 2 0ZM23 13.32v1.98c0 1.49-1.21 2.7-2.72 2.71a2.7 2.7 0 0 1-1.28-.32l-3.26-1.74a3.328 3.328 0 0 1-1.75-2.93V9.16c.81.55 1.78.85 2.79.85h8.09l-1.14 1.33c-.47.55-.73 1.25-.73 1.98Z"/><path fill="#FF8687" d="M5.723 13v-2.973c0-1.167-.85-1.885-1.581-1.885L2.71 9.1A1.6 1.6 0 0 0 2 10.426 2.578 2.578 0 0 0 4.582 13h1.14Z"/><path fill="#1C1C1C" d="M7.5 10.47c-.28 0-.5-.23-.5-.5v-.68c0-.28.22-.5.5-.5s.5.22.5.5v.68c0 .27-.22.5-.5.5Z"/><path fill="#BB1D80" d="M3.5 11.56c-.28 0-.5-.22-.5-.5v-.56c0-.28.22-.5.5-.5s.5.22.5.5v.55c0 .28-.22.51-.5.51Z"/></svg>
